X:1
T:The Three Ravens
B:Traditional Tunes, A collection of Ballad Airs, ISBN 1-86143-081-7
S:John Holmes, from his mother about 1825
Z:Frank Kidson
F:http://www.folkinfo.org/songs
M:4/4     
L:1/8     %
K:Em
E2 |B,2 E2 E2 F2 |G3 A G2 F2 |E3 F E2 F2 |
w:There were three ra-vens on a tree, A-down, a-down, a 
D2 B,2 B,2 E2 |B,2 E2 E2 F2 |G3 A G2 A2 |F6 F2 |
w:der-ry down, There were three ra-vens on a tree, Heigh ho! The 
F2 B2 B2 B2 |A3 F F3 F |G2 F2 E2 E2 |F3 F B,4 |
w:middle-most ra-ven said to me, There lies a dead man at yon tree. 
B B3 F F3 |B B3 F F3 |G2 F4 z2 |]
w:A-down, a-down, a der-ry down Heigh ho! 
     